images/kfb.svg

<svg fill="none" height="58" viewBox="0 0 172 58" width="172" xmlns="http://www.w3.org/2000/svg"><path d="m5.0752 12.1709-2.09473 2.5342v7.2949h-2.680665v-21.328125h2.680665v10.297825l1.75781-2.32908 5.74222-7.968745h3.2226l-6.92869 9.389625 7.47069 11.9385h-3.208zm21.7969-.0293h-7.544v7.5586h8.7891v2.2998h-11.4697v-21.328125h11.3232v2.314455h-8.6426v6.85547h7.544zm14.9121 0h-7.544v7.5586h8.7891v2.2998h-11.4697v-21.328125h11.3232v2.314455h-8.6426v6.85547h7.544zm7.3681 1.5088v8.3496h-2.6806v-21.328125h6.7969c1.9824 0 3.54.595705 4.6728 1.787105 1.1328 1.18165 1.6992 2.75879 1.6992 4.73145 0 2.05078-.542 3.63277-1.626 4.74607-1.0742 1.1035-2.5927 1.6748-4.5556 1.7139zm0-2.2998h4.1163c1.1914 0 2.1044-.3565 2.7392-1.0694.6348-.71284.9522-1.73335.9522-3.06147 0-1.2793-.3272-2.30469-.9815-3.07618-.6543-.77148-1.5527-1.15722-2.6953-1.15722h-4.1309zm-48.852495 45.6494v-21.3281h6.079105c1.94336 0 3.40332.4736 4.37989 1.4209.9863.9472 1.4795 2.3681 1.4795 4.2627 0 .9961-.249 1.875-.7471 2.6367-.498.7617-1.1719 1.3525-2.02147 1.7724.97657.293 1.74807.8936 2.31447 1.8018.5762.9082.8642 2.002.8642 3.2813 0 1.914-.5273 3.4179-1.582 4.5117-1.0449 1.0937-2.53906 1.6406-4.48242 1.6406zm2.680665-9.9756v7.6758h3.66211c1.01562 0 1.82129-.332 2.41699-.9961.5957-.6738.89355-1.6162.89355-2.8271 0-2.5684-1.08398-3.8526-3.25195-3.8526zm0-2.2558h3.44238c.92774 0 1.67481-.3125 2.24121-.9375.57617-.625.86426-1.4551.86426-2.4903 0-1.1719-.25879-2.0215-.77637-2.5488-.51757-.5371-1.30859-.8057-2.37304-.8057h-3.39844zm27.56833 3.4423c0 2.9102-.6201 5.1514-1.8603 6.7237-1.2403 1.5722-3.003 2.3584-5.2881 2.3584-2.1973 0-3.9356-.7618-5.2149-2.2852-1.2695-1.5332-1.9287-3.6963-1.9775-6.4892v-4.0137c0-2.8516.6299-5.083 1.8897-6.6944 1.2597-1.621 3.0175-2.4316 5.2734-2.4316 2.2461 0 3.9941.7764 5.2441 2.3291 1.2598 1.543 1.9043 3.75 1.9336 6.6211zm-2.6806-3.7353c0-2.2559-.3711-3.9307-1.1133-5.0244-.7324-1.1035-1.8604-1.6553-3.3838-1.6553-1.4746 0-2.5928.5566-3.3545 1.6699-.752 1.1133-1.1328 2.7539-1.1426 4.9219v3.8232c0 2.1778.376 3.8379 1.128 4.9805.7617 1.1426 1.8945 1.7139 3.3984 1.7139s2.6172-.5274 3.3398-1.5821c.7227-1.0546 1.0987-2.6709 1.128-4.8486zm12.4951-.6299 4.0137-8.1738h3.1494l-5.5518 10.5761 5.669 10.752h-3.1788l-4.1015-8.3203-4.1162 8.3203h-3.1787l5.6982-10.752-5.5811-10.5761h3.1348z" fill="#3c3c3c"/><path d="m73 12.5811h-7.207v9.4189h-2.6807v-21.328125h11.1035v2.314455h-8.4228v7.29487h7.207zm18.3984.6298c0 2.9102-.6201 5.1514-1.8603 6.7237-1.2402 1.5722-3.0029 2.3584-5.2881 2.3584-2.1973 0-3.9355-.7618-5.2148-2.2852-1.2696-1.5332-1.9288-3.6963-1.9776-6.4892v-4.01372c0-2.85156.6299-5.083 1.8897-6.69433 1.2597-1.6211 3.0175-2.431644 5.2734-2.431644 2.2461 0 3.9941.776364 5.2441 2.329104 1.2598 1.54297 1.9043 3.75 1.9336 6.62109zm-2.6806-3.73531c0-2.25586-.3711-3.93067-1.1133-5.02442-.7324-1.10351-1.8604-1.65527-3.3838-1.65527-1.4746 0-2.5928.55664-3.3545 1.66992-.7519 1.11328-1.1328 2.75391-1.1426 4.92188v3.8232c0 2.1778.376 3.8379 1.128 4.9805.7617 1.1426 1.8945 1.7139 3.3984 1.7139s2.6172-.5274 3.3398-1.5821c.7227-1.0546 1.0987-2.6709 1.128-4.8486zm13.2712 3.89651h-3.7497v8.6279h-2.6954v-21.328125h5.9771c2.089 0 3.671.546875 4.746 1.640625 1.074 1.08398 1.611 2.67578 1.611 4.77539 0 1.31836-.293 2.4707-.879 3.45701-.576.9766-1.396 1.7139-2.461 2.2119l4.131 9.0674v.1758h-2.886zm-3.7497-2.2998h3.2517c1.123 0 2.017-.3614 2.681-1.08402.674-.72266 1.011-1.68945 1.011-2.90039 0-2.73437-1.241-4.10156-3.721-4.10156h-3.2227zm23.4667 1.0693h-7.544v7.5586h8.789v2.2998h-11.47v-21.328125h11.324v2.314455h-8.643v6.85547h7.544zm10.781 5.7422 4.878-17.211925h2.945l-6.636 21.328125h-2.344l-6.621-21.328125h2.93zm20.948-5.7422h-7.544v7.5586h8.789v2.2998h-11.47v-21.328125h11.323v2.314455h-8.642v6.85547h7.544zm11.132 1.2305h-3.75v8.6279h-2.695v-21.328125h5.977c2.089 0 3.672.546875 4.746 1.640625 1.074 1.08398 1.611 2.67578 1.611 4.77539 0 1.31836-.293 2.4707-.879 3.45701-.576.9766-1.396 1.7139-2.461 2.2119l4.131 9.0674v.1758h-2.886zm-3.75-2.2998h3.252c1.123 0 2.017-.3614 2.681-1.08402.674-.72266 1.011-1.68945 1.011-2.90039 0-2.73437-1.24-4.10156-3.721-4.10156h-3.223z" fill="#830909"/></svg>

<svg width="172" height="58" viewBox="0 0 172 58" fill="none" xmlns="http://www.w3.org/2000/svg">
<path d="M5.0752 12.1709L2.98047 14.7051V22H0.299805V0.671875H2.98047V10.9697L4.73828 8.64062L10.4805 0.671875H13.7031L6.77441 10.0615L14.2451 22H11.0371L5.0752 12.1709ZM26.8721 12.1416H19.3281V19.7002H28.1172V22H16.6475V0.671875H27.9707V2.98633H19.3281V9.8418H26.8721V12.1416ZM41.7842 12.1416H34.2402V19.7002H43.0293V22H31.5596V0.671875H42.8828V2.98633H34.2402V9.8418H41.7842V12.1416ZM49.1523 13.6504V22H46.4717V0.671875H53.2686C55.251 0.671875 56.8086 1.26758 57.9414 2.45898C59.0742 3.64063 59.6406 5.21777 59.6406 7.19043C59.6406 9.24121 59.0986 10.8232 58.0146 11.9365C56.9404 13.04 55.4219 13.6113 53.459 13.6504H49.1523ZM49.1523 11.3506H53.2686C54.46 11.3506 55.373 10.9941 56.0078 10.2812C56.6426 9.56836 56.96 8.54785 56.96 7.21973C56.96 5.94043 56.6328 4.91504 55.9785 4.14355C55.3242 3.37207 54.4258 2.98633 53.2832 2.98633H49.1523V11.3506ZM0.299805 57V35.6719H6.37891C8.32227 35.6719 9.78223 36.1455 10.7588 37.0928C11.7451 38.04 12.2383 39.4609 12.2383 41.3555C12.2383 42.3516 11.9893 43.2305 11.4912 43.9922C10.9932 44.7539 10.3193 45.3447 9.46973 45.7646C10.4463 46.0576 11.2178 46.6582 11.7842 47.5664C12.3604 48.4746 12.6484 49.5684 12.6484 50.8477C12.6484 52.7617 12.1211 54.2656 11.0664 55.3594C10.0215 56.4531 8.52734 57 6.58398 57H0.299805ZM2.98047 47.0244V54.7002H6.64258C7.6582 54.7002 8.46387 54.3682 9.05957 53.7041C9.65527 53.0303 9.95312 52.0879 9.95312 50.877C9.95312 48.3086 8.86914 47.0244 6.70117 47.0244H2.98047ZM2.98047 44.7686H6.42285C7.35059 44.7686 8.09766 44.4561 8.66406 43.8311C9.24023 43.2061 9.52832 42.376 9.52832 41.3408C9.52832 40.1689 9.26953 39.3193 8.75195 38.792C8.23438 38.2549 7.44336 37.9863 6.37891 37.9863H2.98047V44.7686ZM30.5488 48.2109C30.5488 51.1211 29.9287 53.3623 28.6885 54.9346C27.4482 56.5068 25.6855 57.293 23.4004 57.293C21.2031 57.293 19.4648 56.5312 18.1855 55.0078C16.916 53.4746 16.2568 51.3115 16.208 48.5186V44.5049C16.208 41.6533 16.8379 39.4219 18.0977 37.8105C19.3574 36.1895 21.1152 35.3789 23.3711 35.3789C25.6172 35.3789 27.3652 36.1553 28.6152 37.708C29.875 39.251 30.5195 41.458 30.5488 44.3291V48.2109ZM27.8682 44.4756C27.8682 42.2197 27.4971 40.5449 26.7549 39.4512C26.0225 38.3477 24.8945 37.7959 23.3711 37.7959C21.8965 37.7959 20.7783 38.3525 20.0166 39.4658C19.2646 40.5791 18.8838 42.2197 18.874 44.3877V48.2109C18.874 50.3887 19.25 52.0488 20.002 53.1914C20.7637 54.334 21.8965 54.9053 23.4004 54.9053C24.9043 54.9053 26.0176 54.3779 26.7402 53.3232C27.4629 52.2686 27.8389 50.6523 27.8682 48.4746V44.4756ZM40.3633 43.8457L44.377 35.6719H47.5264L41.9746 46.248L47.6436 57H44.4648L40.3633 48.6797L36.2471 57H33.0684L38.7666 46.248L33.1855 35.6719H36.3203L40.3633 43.8457Z" fill="#3C3C3C"/>
<path d="M73 12.5811H65.793V22H63.1123V0.671875H74.2158V2.98633H65.793V10.2812H73V12.5811ZM91.3984 13.2109C91.3984 16.1211 90.7783 18.3623 89.5381 19.9346C88.2979 21.5068 86.5352 22.293 84.25 22.293C82.0527 22.293 80.3145 21.5312 79.0352 20.0078C77.7656 18.4746 77.1064 16.3115 77.0576 13.5186V9.50488C77.0576 6.65332 77.6875 4.42188 78.9473 2.81055C80.207 1.18945 81.9648 0.378906 84.2207 0.378906C86.4668 0.378906 88.2148 1.15527 89.4648 2.70801C90.7246 4.25098 91.3691 6.45801 91.3984 9.3291V13.2109ZM88.7178 9.47559C88.7178 7.21973 88.3467 5.54492 87.6045 4.45117C86.8721 3.34766 85.7441 2.7959 84.2207 2.7959C82.7461 2.7959 81.6279 3.35254 80.8662 4.46582C80.1143 5.5791 79.7334 7.21973 79.7236 9.3877V13.2109C79.7236 15.3887 80.0996 17.0488 80.8516 18.1914C81.6133 19.334 82.7461 19.9053 84.25 19.9053C85.7539 19.9053 86.8672 19.3779 87.5898 18.3232C88.3125 17.2686 88.6885 15.6523 88.7178 13.4746V9.47559ZM101.989 13.3721H98.2393V22H95.5439V0.671875H101.521C103.61 0.671875 105.192 1.21875 106.267 2.3125C107.341 3.39648 107.878 4.98828 107.878 7.08789C107.878 8.40625 107.585 9.55859 106.999 10.5449C106.423 11.5215 105.603 12.2588 104.538 12.7568L108.669 21.8242V22H105.783L101.989 13.3721ZM98.2393 11.0723H101.491C102.614 11.0723 103.508 10.7109 104.172 9.98828C104.846 9.26562 105.183 8.29883 105.183 7.08789C105.183 4.35352 103.942 2.98633 101.462 2.98633H98.2393V11.0723ZM121.706 12.1416H114.162V19.7002H122.951V22H111.481V0.671875H122.805V2.98633H114.162V9.8418H121.706V12.1416ZM132.487 17.8838L137.365 0.671875H140.31L133.674 22H131.33L124.709 0.671875H127.639L132.487 17.8838ZM153.435 12.1416H145.891V19.7002H154.68V22H143.21V0.671875H154.533V2.98633H145.891V9.8418H153.435V12.1416ZM164.567 13.3721H160.817V22H158.122V0.671875H164.099C166.188 0.671875 167.771 1.21875 168.845 2.3125C169.919 3.39648 170.456 4.98828 170.456 7.08789C170.456 8.40625 170.163 9.55859 169.577 10.5449C169.001 11.5215 168.181 12.2588 167.116 12.7568L171.247 21.8242V22H168.361L164.567 13.3721ZM160.817 11.0723H164.069C165.192 11.0723 166.086 10.7109 166.75 9.98828C167.424 9.26562 167.761 8.29883 167.761 7.08789C167.761 4.35352 166.521 2.98633 164.04 2.98633H160.817V11.0723Z" fill="#830909"/>
</svg>
